X:64
T:Haulin' Ass to Naptown
R:reel
C: 1990, 2010 L.E. McCullough 
M:4/4
L:1/8
K:G
|:~B3A AGEG|DGBG AGEG|~B3A AG (3B^cd|edBA ~G3A|
B~G3 e~g3|edBA AGEG|D~G3 DGBd|1 edBA ~G3A:|2 edBA ~G3d|] 
|:~e3d edBA| (3B^cd ef gbag|~e3d edBA|(3B^cd ed B~A3|
~e3d edBA| (3B^cd ef ~g3a|b~g3 ageg|1 edBA ~G3d:|2 edBA ~G3A|]
<end>
<start>
